X:1
T:Compassio, 12.11.12.11
T:Compassio, 12.11.12.11
T:Cedric Bucknall, 1889
T:Public Domain Courtesy of the Cyber Hymnal™
C:Cedric Bucknall, 1889
Z:Public Domain
Z:Courtesy of the Cyber Hymnal™
%%score ( 1 2 ) ( 3 4 )
L:1/8
Q:1/4=114
M:4/4
K:Eb
V:1 treble 
V:2 treble 
V:3 bass 
V:4 bass 
V:1
 B4 | (B2 A2) [EG]2 [DF]2 | E4 E2 E2 | ([Ec]2 [GB]2) [FA]2 [=EG]2 | [EG]2 F2 (B2 A2) | %5
 ([EG]2 [FB]2) [Ee]2 [Ed]2 | c4 [Cc]2 [=Ec]2 | ([FA]2 [CF]2) [DB]2 [DA]2 | [EG]4 B4 | %9
 (B2 G2) [EA]2 [EB]2 | c4 [=Ec]2 [Fc]2 | ([Fd]2 [AB]2) [Gc]2 [Ad]2 | [Ge]2 [Gd]2 c2 B2 | %13
 (A2 F2) [B,B]2 [DA]2 | G4 [Cc]2 [CG]2 | ([CA]2 [EG]2) [EF]2 [DF]2 | E4 |] %17
V:2
 (E2 D2) | E4 x4 | E4 E2 E2 | x8 | x2 F2 F4 | x8 | (=E2 D2) x4 | x8 | x4 (E2 D2) | E4 x4 | %10
 (=E2 A2) x4 | x8 | x4 E4 | C4 x4 | (E2 D2) x4 | x8 | E4 |] %17
V:3
 (G,2 F,2) | (G,2 C2) [E,B,]2 [E,A,]2 | [E,G,]2 [D,B,]2 [C,A,]2 [B,,G,]2 | %3
 ([A,,A,]2 [B,,_D]2) [C,C]2 [C,B,]2 | [F,B,]2 [F,A,]2 (F,2 B,2) | B,4 [C,G,]2 [B,,G,]2 | %6
 (A,2 B,2) [A,C]2 [G,C]2 | (C2 A,2) [B,,F,]2 [B,,B,]2 | [E,B,]4 ([E,G,]2 [F,A,]2) | %9
 ([G,B,]2 [B,_D]2) [A,C]2 [G,B,]2 | A,4 [G,B,]2 [F,A,]2 | (B,2 D2) [B,E]2 [B,F]2 | %12
 [CE]2 [G,B,]2 A,2 [E,G,]2 | F,4 [D,F,]2 [B,,F,]2 | E,4 [A,,E,]2 [C,=E,]2 | %15
 ([F,,F,]2 [G,,B,]2) [A,,C]2 [B,,A,]2 | [E,G,]4 |] %17
V:4
 E,4 | E,4 x4 | x8 | x8 | x4 D,4 | (E,2 D,2) x4 | A,,4 x4 | F,4 x4 | x8 | x8 | (A,2 F,2) x4 | %11
 B,4 x4 | x4 A,2 x2 | (F,2 E,2) x4 | (C,2 B,,2) x4 | x8 | x4 |] %17

